Sources/FrostedUI/Resources/Icons.xcassets/codeblock24.imageset/codeblock-24.svg

<svg width="24" height="24" viewBox="0 0 24 24" fill="none" xmlns="http://www.w3.org/2000/svg" data-fui-icon="true">
  <path
    d="M16.9238 19C17.4713 19 17.9278 19.001 18.2988 18.9707C18.6784 18.9397 19.035 18.8718 19.3721 18.7002C19.8896 18.4366 20.3106 18.0154 20.5742 17.4981C20.7459 17.1609 20.8137 16.8045 20.8447 16.4248C20.875 16.0537 20.874 15.5975 20.874 15.0498V6.87501C20.874 6.36188 20.8744 5.93436 20.8477 5.58595C20.8203 5.22978 20.7618 4.89439 20.6104 4.57423C20.3383 3.99915 19.8749 3.53568 19.2998 3.26368C18.9797 3.11239 18.6441 3.0537 18.2881 3.02637C17.9397 2.99969 17.512 3.00001 16.999 3.00001H16.0947C15.6807 3.00022 15.3447 3.33592 15.3447 3.75001C15.3447 4.16409 15.6807 4.4998 16.0947 4.50001H16.999C17.5349 4.50001 17.8951 4.50024 18.1729 4.52149C18.4422 4.54214 18.5725 4.5797 18.6582 4.62012C18.9196 4.74375 19.1302 4.95446 19.2539 5.21583C19.2944 5.30148 19.3319 5.43155 19.3525 5.70118C19.3738 5.97894 19.374 6.33886 19.374 6.87501V15.0498C19.374 15.6222 19.3738 16.0069 19.3496 16.3027C19.3261 16.5897 19.2834 16.7269 19.2373 16.8174C19.1175 17.0525 18.9264 17.2436 18.6914 17.3633C18.6009 17.4094 18.4634 17.4522 18.1768 17.4756C17.8809 17.4997 17.496 17.5 16.9238 17.5H8.82422C8.25201 17.5 7.86711 17.4998 7.57129 17.4756C7.28453 17.4521 7.14711 17.4094 7.05664 17.3633C6.82167 17.2435 6.63047 17.0524 6.51074 16.8174C6.46465 16.7269 6.42189 16.5896 6.39844 16.3027C6.37427 16.0069 6.37402 15.6222 6.37402 15.0498L6.37402 12.46C6.37402 12.0458 6.03824 11.71 5.62402 11.71C5.20999 11.7102 4.87402 12.0459 4.87402 12.46L4.87402 15.0498C4.87402 15.5975 4.873 16.0537 4.90332 16.4248C4.93435 16.8045 5.00217 17.161 5.17383 17.4981C5.43739 18.0154 5.85866 18.4366 6.37598 18.7002C6.713 18.8719 7.06964 18.9397 7.44922 18.9707C7.82027 19.001 8.27672 19 8.82422 19H16.9238ZM7.70898 11.1494C8.109 11.2566 8.5603 11.0328 8.7168 10.6494L11.4512 3.94434C11.6076 3.5608 11.4099 3.16288 11.0098 3.05567C10.6098 2.94867 10.1583 3.17225 10.002 3.55567L7.26758 10.2607C7.11118 10.6442 7.30903 11.0421 7.70898 11.1494ZM5.12207 9.8252C5.42966 10.1026 5.90422 10.0781 6.18164 9.77052C6.45845 9.463 6.43411 8.98921 6.12695 8.71192L4.56543 7.30372C4.50528 7.24939 4.5 7.20605 4.5 7.18946C4.5002 7.17224 4.5062 7.1296 4.56543 7.07618L6.12695 5.66798C6.43396 5.39058 6.45863 4.91681 6.18164 4.60938C5.90428 4.3021 5.42959 4.27762 5.12207 4.5547L3.56055 5.9629C2.8132 6.63728 2.81329 7.74257 3.56055 8.417L5.12207 9.8252ZM12.5381 9.77052C12.8155 10.0781 13.2891 10.1025 13.5967 9.8252L15.1582 8.417C15.9059 7.74252 15.9059 6.63736 15.1582 5.9629L13.5967 4.5547C13.2891 4.27773 12.8154 4.30207 12.5381 4.60938C12.2608 4.91684 12.2856 5.39052 12.5928 5.66798L14.1533 7.07618C14.2125 7.1296 14.2195 7.17224 14.2197 7.18946C14.2197 7.20606 14.2136 7.24936 14.1533 7.30372L12.5928 8.71192C12.2853 8.98922 12.261 9.46292 12.5381 9.77052Z"
    fill="currentColor"
  />
</svg>

<svg xmlns="http://www.w3.org/2000/svg" width="24" height="24" fill="none" data-fui-icon="true" viewBox="0 0 24 24"><path fill="currentColor" d="M16.924 19c.547 0 1.004.001 1.375-.03.38-.03.736-.098 1.073-.27a2.75 2.75 0 0 0 1.202-1.202c.172-.337.24-.694.27-1.073.031-.371.03-.828.03-1.375V6.875c0-.513 0-.94-.026-1.289-.028-.356-.086-.692-.238-1.012a2.75 2.75 0 0 0-1.31-1.31c-.32-.152-.656-.21-1.012-.238C17.94 3 17.512 3 17 3h-.904a.75.75 0 0 0 0 1.5h.904c.536 0 .896 0 1.174.021.27.021.4.059.485.1.262.123.472.333.596.595.04.085.078.216.098.485.022.278.022.638.022 1.174v8.175c0 .572 0 .957-.024 1.253-.024.287-.067.424-.113.514-.12.235-.31.427-.546.546-.09.046-.228.09-.514.113-.296.024-.681.024-1.253.024h-8.1c-.572 0-.957 0-1.253-.024-.286-.024-.424-.067-.514-.113a1.25 1.25 0 0 1-.546-.546c-.046-.09-.09-.227-.113-.514-.024-.296-.024-.68-.024-1.253v-2.59a.75.75 0 0 0-1.5 0v2.59c0 .547-.001 1.004.03 1.375.03.38.098.736.27 1.073.263.517.685.939 1.202 1.202.337.172.694.24 1.073.27.371.031.828.03 1.375.03zm-9.215-7.85a.87.87 0 0 0 1.008-.5l2.734-6.706a.645.645 0 0 0-.441-.888.87.87 0 0 0-1.008.5L7.268 10.26a.645.645 0 0 0 .441.888M5.122 9.824a.75.75 0 0 0 1.005-1.113L4.565 7.304c-.06-.055-.065-.098-.065-.115s.006-.06.065-.113l1.562-1.408a.75.75 0 0 0-1.005-1.113L3.561 5.963a1.623 1.623 0 0 0 0 2.454zm7.416-.054a.75.75 0 0 0 1.059.054l1.561-1.408a1.623 1.623 0 0 0 0-2.454l-1.561-1.408a.75.75 0 0 0-1.004 1.113l1.56 1.408c.06.054.066.096.067.113 0 .017-.006.06-.067.115l-1.56 1.408a.75.75 0 0 0-.055 1.059"/></svg>
